X: 25684
T: Martin Wynne's
R: reel
M: 4/4
K: Gmajor
BGAG EDB,C|DGBA GBAG|EB,~B,2 G,A,B,D|E/F/G AB cAdc|
BGAG EDB,C|DGBA GBAG|EB,~B,2 G,A,B,D|E/F/G AG BG~G2:|
|:BddB cedc|BGAG EA~A2|BddB dega|bg~g2 ea~a2|
bz~g2 abgf|eB~B2 GA B/c/d|edcB cBAG|FGAc BG~G2:|

